!!!ONB: MCCC : IJB0064_06 : Extracted Monophonic Melody
!!!COM: Bach, Johann Sebastian
!!!OPR: Cello Suite No.2
!!!OMV: 6
!!!SCT: BWV 1008
!!!ODT: 1717///
**kern
*thru
*staff1
*IP1
*clefF4
*k[f#c#]
*D:
*M3/4
*>A
=1-
4F#
8D
8E
8F#
8G
=2
4A
4FF#
4A
=3
8GG
8BB
4E
4G
=4
8D
8C#
8BB
8C#
8AA
8GG
=5
8FF#
8d
8c#
8B
8A
8G
=6
8B
8A
8G
8F#
8E
8D
=7
8C#
8D
4G
8F#
16G
16A
=8
2.E
=9
*>A
4F#
8D
8E
8F#
8G
=2
4A
4FF#
4A
=3
8GG
8BB
4E
4G
=4
8D
8C#
8BB
8C#
8AA
8GG
=5
8FF#
8d
8c#
8B
8A
8G
=6
8B
8A
8G
8F#
8E
8D
=7
8C#
8D
4G
8F#
16G
16A
=8
2.E
=9
*>B
4c#
8e
8d
8c#
8B
=10
4c#
4GG
4c#
=11
8F#
8A
4d
4f#
=12
8B
8A
8G
8F#
8G
8B
=13
8E
8d
8c#
8B
8c#
8A#
=14
8D
8B
8A
8G
8F#
8E
=15
8G
8F#
8E
8D
8C#
8D
=16
8BB
8C#
8D
8E
8F#
8G
=17
8A
8G
8F#
8G
8A
8B
=18
4c
4DD#
4c
=19
8B
8A
8c
8B
8A
8G
=20
8F#
8G
8A
8F#
8G
8E
=21
4C#
8AA
8BB
8C#
8D
=22
8E
8F#
8G
8B
4A
=23
8G
8F#
8E
8D
8E
8C#
=24
2.D
=25
*>B
4c#
8e
8d
8c#
8B
=10
4c#
4GG
4c#
=11
8F#
8A
4d
4f#
=12
8B
8A
8G
8F#
8G
8B
=13
8E
8d
8c#
8B
8c#
8A#
=14
8D
8B
8A
8G
8F#
8E
=15
8G
8F#
8E
8D
8C#
8D
=16
8BB
8C#
8D
8E
8F#
8G
=17
8A
8G
8F#
8G
8A
8B
=18
4c
4DD#
4c
=19
8B
8A
8c
8B
8A
8G
=20
8F#
8G
8A
8F#
8G
8E
=21
4C#
8AA
8BB
8C#
8D
=22
8E
8F#
8G
8B
4A
=23
8G
8F#
8E
8D
8E
8C#
=24
2.D
==
*-
